X:13
T:Fisherman's Lilt
D:Bothy Band: Out of Wind Into the Sun
Z:Gwenaël Lambrouin, 2016-12, d'après l'interprétation de Cyrille 
R:reel
M:2/2 
Q:1/2=90
K:C
|: GGGE GAcd | edcB cAAA | GEEE GAcd |1 edcB c3A :|2 edcB c3d | 
|: eggg ageg | gede cAAA | eggg eaaa | gaag a3g | 
   eggg ageg | gede cAAA | GEEE GAcd |1 edcB c3d :|2 edcB c3A |

